images/build/build-types/02.svg

<svg width="152" height="89" viewBox="0 0 152 89" fill="none" xmlns="http://www.w3.org/2000/svg">
<path opacity="0.1" d="M69.4624 88.4086C62.4624 97.6486 52.709 102.269 40.2024 102.269C27.6957 102.269 17.8957 97.6486 10.8024 88.4086C3.80237 79.0753 0.302371 66.7086 0.302371 51.3086C0.302371 35.9086 3.80237 23.5886 10.8024 14.3486C17.8957 5.01526 27.6957 0.348587 40.2024 0.348587C52.709 0.348587 62.4624 5.01526 69.4624 14.3486C76.5557 23.5886 80.1024 35.9086 80.1024 51.3086C80.1024 66.7086 76.5557 79.0753 69.4624 88.4086ZM22.7024 51.3086C22.7024 70.7219 28.5357 80.4286 40.2024 80.4286C51.869 80.4286 57.7024 70.7219 57.7024 51.3086C57.7024 31.8953 51.869 22.1886 40.2024 22.1886C28.5357 22.1886 22.7024 31.8953 22.7024 51.3086ZM84.6316 100.309V84.0686L117.532 49.9086C124.158 43.0953 127.472 37.3086 127.472 32.5486C127.472 29.4686 126.538 26.9953 124.672 25.1286C122.805 23.1686 120.238 22.1886 116.972 22.1886C110.438 22.1886 105.632 25.7353 102.552 32.8286L83.6516 21.7686C86.6383 14.7686 91.1183 9.44859 97.0916 5.80859C103.065 2.16859 109.598 0.348587 116.692 0.348587C125.838 0.348587 133.632 3.19525 140.072 8.88859C146.605 14.4886 149.872 22.0486 149.872 31.5686C149.872 41.9286 144.785 52.1953 134.612 62.3686L118.372 78.7486H151.272V100.309H84.6316Z" fill="#CB8734"/>
</svg>

<svg width="152" height="89" fill="none" xmlns="http://www.w3.org/2000/svg"><path opacity=".1" d="M69.462 88.409c-7 9.24-16.753 13.86-29.26 13.86-12.506 0-22.306-4.62-29.4-13.86-7-9.334-10.5-21.7-10.5-37.1 0-15.4 3.5-27.72 10.5-36.96 7.094-9.334 16.894-14 29.4-14 12.507 0 22.26 4.666 29.26 14 7.094 9.24 10.64 21.56 10.64 36.96 0 15.4-3.546 27.766-10.64 37.1zm-46.76-37.1c0 19.413 5.834 29.12 17.5 29.12 11.667 0 17.5-9.707 17.5-29.12 0-19.414-5.833-29.12-17.5-29.12-11.666 0-17.5 9.706-17.5 29.12zm61.93 49v-16.24l32.9-34.16c6.626-6.814 9.94-12.6 9.94-17.36 0-3.08-.934-5.554-2.8-7.42-1.867-1.96-4.434-2.94-7.7-2.94-6.534 0-11.34 3.546-14.42 10.64l-18.9-11.06c2.986-7 7.466-12.32 13.44-15.96 5.973-3.64 12.506-5.46 19.6-5.46 9.146 0 16.94 2.846 23.38 8.54 6.533 5.6 9.8 13.16 9.8 22.68 0 10.36-5.087 20.626-15.26 30.8l-16.24 16.38h32.9v21.56h-66.64z" fill="#CB8734"/></svg>
